modules/contact_form/images/forms.svg

<svg id="Layer_1" enable-background="new 0 0 48 24" viewBox="0 0 48 24" xmlns="http://www.w3.org/2000/svg" xmlns:xlink="http://www.w3.org/1999/xlink"><defs><symbol id="New_Symbol_2" viewBox="-12 -12 24 24"><path d="m9.8-1h-.8v12h-15v-1-2h-3v-1-2h-2v-1-16h13 1v0c0 0 .1 0 .1 0h6.7c1.2 0 2.2 1 2.2 2.2v6.7c0 1.2-1 2.1-2.2 2.1z" fill="#939393"/><path d="m7.5-5.5h-14v17h14z" fill="#d6d6d6" stroke="#5a5a5a" stroke-miterlimit="10"/><path d="m4.5-7.5h-14v16h14z" fill="#d6d6d6" stroke="#5a5a5a" stroke-miterlimit="10"/><path d="m1.5-10.5h-13v16h13z" fill="#d6d6d6" stroke="#5a5a5a" stroke-miterlimit="10"/><path d="m11-2.2c0 1.2-1 2.2-2.2 2.2h-6.6c-1.2 0-2.2-1-2.2-2.2v-6.6c0-1.2 1-2.2 2.2-2.2h6.6c1.2 0 2.2 1 2.2 2.2z" fill="#5a5a5a"/><path d="m10-8.8c0-.7-.5-1.2-1.2-1.2h-6.6c-.7 0-1.2.5-1.2 1.2v6.6c0 .7.5 1.2 1.2 1.2h6.6c.7 0 1.2-.5 1.2-1.2z" fill="#fff"/><path d="m1.9-5.8c.7-.3 1.3-.6 2.1-.9.1 0 .1 0 .2 0 1.8 1.7 3.6 3.4 5.5 5.2.2.2.7.1.6-.1-3.3-3.8-5-6-6-7.7-.1-.2-.3-.1-.4 0-.3.3-.6.9-.7.9-.7 1.3-.7 1.3-1.3 2.6-.2 0-.1.1 0 0z" fill="#5a5a5a"/><path d="m-1-9h-9v1h9z" fill="#5a5a5a"/><path d="m-1-7h-9v1h9z" fill="#5a5a5a"/><path d="m-1-5h-9v1h9z" fill="#5a5a5a"/><path d="m0 3h-4v1h4z" fill="#5a5a5a"/><path d="m0 1h-4v1h4z" fill="#5a5a5a"/><path d="m-5.1 2.2c0-1-.8-1.9-1.9-1.9s-1.9.8-1.9 1.9.9 1.9 1.9 1.9 1.9-.9 1.9-1.9z" fill="#5a5a5a"/><path d="m-3.4-3c0 .1 0 .1 0 .2 0 1.2-.6 2.2-1.5 2.9-.5-.5-1.3-.9-2.1-.9s-1.6.3-2.1.9c-.9-.6-1.5-1.7-1.5-2.9 0-.1 0-.1 0-.2z" fill="#5a5a5a"/><path d="m-12 12h24v-24h-24z" display="none" fill="none"/></symbol><symbol id="New_Symbol_3" viewBox="-12 -12 24 24"><path d="m9.8-1h-.8v12h-15v-1-2h-3v-1-2h-2v-1-16h13 1v0c0 0 .1 0 .1 0h6.7c1.2 0 2.2 1 2.2 2.2v6.7c0 1.2-1 2.1-2.2 2.1z" fill="#5a5a5a"/><path d="m7-6h-14v17h14z" fill="#fff"/><path d="m8-6h-15v18h15zm-14 1h13v16h-13z" fill="#ac382e"/><path d="m4-8h-14v16h14z" fill="#fff"/><path d="m5-8h-15v17h15zm-14 1h13v15h-13z" fill="#ac382e"/><path d="m1-11h-13v16h13z" fill="#fff"/><path d="m2-11h-14v17h14zm-13 1h12v15h-12z" fill="#ac382e"/><path d="m11-2.2c0 1.2-1 2.2-2.2 2.2h-6.6c-1.2 0-2.2-1-2.2-2.2v-6.6c0-1.2 1-2.2 2.2-2.2h6.6c1.2 0 2.2 1 2.2 2.2z" fill="#fff"/><path d="m10-8.8c0-.7-.5-1.2-1.2-1.2h-6.6c-.7 0-1.2.5-1.2 1.2v6.6c0 .7.5 1.2 1.2 1.2h6.6c.7 0 1.2-.5 1.2-1.2z" fill="#e74c3c"/><path d="m1.9-5.8c.7-.3 1.3-.6 2.1-.9.1 0 .1 0 .2 0 1.8 1.7 3.6 3.4 5.5 5.2.2.2.7.1.6-.1-3.3-3.8-5-6-6-7.7-.1-.2-.3-.1-.4 0-.3.3-.6.9-.7.9-.7 1.3-.7 1.3-1.3 2.6-.2 0-.1.1 0 0z" fill="#fff"/><path d="m-1-9h-9v1h9z" fill="#e74c3c"/><path d="m-1-7h-9v1h9z" fill="#e74c3c"/><path d="m-1-5h-9v1h9z" fill="#e74c3c"/><path d="m0 3h-4v1h4z" fill="#e74c3c"/><path d="m0 1h-4v1h4z" fill="#e74c3c"/><path d="m-5.1 2.2c0-1-.8-1.9-1.9-1.9s-1.9.8-1.9 1.9.9 1.9 1.9 1.9 1.9-.9 1.9-1.9z" fill="#e74c3c"/><path d="m-3.4-3c0 .1 0 .1 0 .2 0 1.2-.6 2.2-1.5 2.9-.5-.5-1.3-.9-2.1-.9s-1.6.3-2.1.9c-.9-.6-1.5-1.7-1.5-2.9 0-.1 0-.1 0-.2z" fill="#e74c3c"/><path d="m-12 12h24v-24h-24z" display="none" fill="none"/></symbol></defs><use height="24" overflow="visible" transform="matrix(1 0 0 -1 12 12)" width="24" x="-12" xlink:href="#New_Symbol_2" y="-12"/><use height="24" overflow="visible" transform="matrix(1 0 0 -1 36 12)" width="24" x="-12" xlink:href="#New_Symbol_3" y="-12"/></svg>

<?xml version="1.0" encoding="utf-8"?>
<!-- Generator: Adobe Illustrator 17.1.0, SVG Export Plug-In . SVG Version: 6.00 Build 0)  -->
<!DOCTYPE svg PUBLIC "-//W3C//DTD SVG 1.1//EN" "http://www.w3.org/Graphics/SVG/1.1/DTD/svg11.dtd">
<svg version="1.1" id="Layer_1" xmlns="http://www.w3.org/2000/svg" xmlns:xlink="http://www.w3.org/1999/xlink" x="0px" y="0px"
	 viewBox="0 0 48 24" enable-background="new 0 0 48 24" xml:space="preserve">
<symbol  id="New_Symbol_2" viewBox="-12 -12 24 24">
	<path fill="#939393" d="M9.8-1H9v12H-6v-1V8h-3V7V5h-2V4v-16H2h1v0c0,0,0.1,0,0.1,0h6.7C11-12,12-11,12-9.8v6.7C12-1.9,11-1,9.8-1z
		"/>
	<polygon fill="#D6D6D6" stroke="#5A5A5A" stroke-miterlimit="10" points="7.5,-5.5 -6.5,-5.5 -6.5,11.5 7.5,11.5 	"/>
	<polygon fill="#D6D6D6" stroke="#5A5A5A" stroke-miterlimit="10" points="4.5,-7.5 -9.5,-7.5 -9.5,8.5 4.5,8.5 	"/>
	<polygon fill="#D6D6D6" stroke="#5A5A5A" stroke-miterlimit="10" points="1.5,-10.5 -11.5,-10.5 -11.5,5.5 1.5,5.5 	"/>
	<path fill="#5A5A5A" d="M11-2.2C11-1,10,0,8.8,0H2.2C1,0,0-1,0-2.2v-6.6C0-10,1-11,2.2-11h6.6C10-11,11-10,11-8.8V-2.2z"/>
	<path fill="#FFFFFF" d="M10-8.8C10-9.5,9.5-10,8.8-10H2.2C1.5-10,1-9.5,1-8.8v6.6C1-1.5,1.5-1,2.2-1h6.6C9.5-1,10-1.5,10-2.2V-8.8z
		"/>
	<g id="Symbol_5_">
		<path fill="#5A5A5A" d="M1.9-5.8C2.6-6.1,3.2-6.4,4-6.7c0.1,0,0.1,0,0.2,0C6-5,7.8-3.3,9.7-1.5c0.2,0.2,0.7,0.1,0.6-0.1
			c-3.3-3.8-5-6-6-7.7c-0.1-0.2-0.3-0.1-0.4,0C3.6-9,3.3-8.4,3.2-8.4C2.5-7.1,2.5-7.1,1.9-5.8C1.7-5.8,1.8-5.7,1.9-5.8L1.9-5.8z"/>
	</g>
	<polygon fill="#5A5A5A" points="-1,-9 -10,-9 -10,-8 -1,-8 	"/>
	<polygon fill="#5A5A5A" points="-1,-7 -10,-7 -10,-6 -1,-6 	"/>
	<polygon fill="#5A5A5A" points="-1,-5 -10,-5 -10,-4 -1,-4 	"/>
	<polygon fill="#5A5A5A" points="0,3 -4,3 -4,4 0,4 	"/>
	<polygon fill="#5A5A5A" points="0,1 -4,1 -4,2 0,2 	"/>
	<g>
		<path fill="#5A5A5A" d="M-5.1,2.2c0-1-0.8-1.9-1.9-1.9s-1.9,0.8-1.9,1.9S-8,4.1-7,4.1S-5.1,3.2-5.1,2.2z"/>
		<path fill="#5A5A5A" d="M-3.4-3c0,0.1,0,0.1,0,0.2c0,1.2-0.6,2.2-1.5,2.9C-5.4-0.4-6.2-0.8-7-0.8s-1.6,0.3-2.1,0.9
			c-0.9-0.6-1.5-1.7-1.5-2.9c0-0.1,0-0.1,0-0.2H-3.4z"/>
	</g>
	<polygon display="none" fill="none" points="-12,12 12,12 12,-12 -12,-12 	"/>
</symbol>
<symbol  id="New_Symbol_3" viewBox="-12 -12 24 24">
	<path fill="#5A5A5A" d="M9.8-1H9v12H-6v-1V8h-3V7V5h-2V4v-16H2h1v0c0,0,0.1,0,0.1,0h6.7C11-12,12-11,12-9.8v6.7C12-1.9,11-1,9.8-1z
		"/>
	<g>
		<polygon fill="#FFFFFF" points="7,-6 -7,-6 -7,11 7,11 		"/>
		<path fill="#AC382E" d="M8-6H-7v18H8V-6z M-6-5H7v16H-6V-5z"/>
	</g>
	<g>
		<polygon fill="#FFFFFF" points="4,-8 -10,-8 -10,8 4,8 		"/>
		<path fill="#AC382E" d="M5-8h-15V9H5V-8z M-9-7H4V8H-9V-7z"/>
	</g>
	<g>
		<polygon fill="#FFFFFF" points="1,-11 -12,-11 -12,5 1,5 		"/>
		<path fill="#AC382E" d="M2-11h-14V6H2V-11z M-11-10H1V5h-12V-10z"/>
	</g>
	<g>
		<path fill="#FFFFFF" d="M11-2.2C11-1,10,0,8.8,0H2.2C1,0,0-1,0-2.2v-6.6C0-10,1-11,2.2-11h6.6C10-11,11-10,11-8.8V-2.2z"/>
	</g>
	<g>
		<path fill="#E74C3C" d="M10-8.8C10-9.5,9.5-10,8.8-10H2.2C1.5-10,1-9.5,1-8.8v6.6C1-1.5,1.5-1,2.2-1h6.6C9.5-1,10-1.5,10-2.2V-8.8
			z"/>
	</g>
	<g id="Symbol_4_">
		<g>
			<path fill="#FFFFFF" d="M1.9-5.8C2.6-6.1,3.2-6.4,4-6.7c0.1,0,0.1,0,0.2,0C6-5,7.8-3.3,9.7-1.5c0.2,0.2,0.7,0.1,0.6-0.1
				c-3.3-3.8-5-6-6-7.7c-0.1-0.2-0.3-0.1-0.4,0C3.6-9,3.3-8.4,3.2-8.4C2.5-7.1,2.5-7.1,1.9-5.8C1.7-5.8,1.8-5.7,1.9-5.8L1.9-5.8z"/>
		</g>
	</g>
	<g>
		<polygon fill="#E74C3C" points="-1,-9 -10,-9 -10,-8 -1,-8 		"/>
	</g>
	<g>
		<polygon fill="#E74C3C" points="-1,-7 -10,-7 -10,-6 -1,-6 		"/>
	</g>
	<g>
		<polygon fill="#E74C3C" points="-1,-5 -10,-5 -10,-4 -1,-4 		"/>
	</g>
	<g>
		<polygon fill="#E74C3C" points="0,3 -4,3 -4,4 0,4 		"/>
	</g>
	<g>
		<polygon fill="#E74C3C" points="0,1 -4,1 -4,2 0,2 		"/>
	</g>
	<g>
		<g>
			<path fill="#E74C3C" d="M-5.1,2.2c0-1-0.8-1.9-1.9-1.9s-1.9,0.8-1.9,1.9S-8,4.1-7,4.1S-5.1,3.2-5.1,2.2z"/>
		</g>
		<g>
			<path fill="#E74C3C" d="M-3.4-3c0,0.1,0,0.1,0,0.2c0,1.2-0.6,2.2-1.5,2.9C-5.4-0.4-6.2-0.8-7-0.8s-1.6,0.3-2.1,0.9
				c-0.9-0.6-1.5-1.7-1.5-2.9c0-0.1,0-0.1,0-0.2H-3.4z"/>
		</g>
	</g>
	<polygon display="none" fill="none" points="-12,12 12,12 12,-12 -12,-12 	"/>
</symbol>
<use xlink:href="#New_Symbol_2"  width="24" height="24" x="-12" y="-12" transform="matrix(1 0 0 -1 12 12)" overflow="visible"/>
<use xlink:href="#New_Symbol_3"  width="24" height="24" x="-12" y="-12" transform="matrix(1 0 0 -1 36 12)" overflow="visible"/>
</svg>
